packages/match-logos/color/svg/stripe.svg

<svg fill="none" height="40" viewBox="0 0 97 40" width="97" xmlns="http://www.w3.org/2000/svg"><g fill="#635bff"><g clip-rule="evenodd" fill-rule="evenodd"><path d="m96.1282 20.6676c0-6.8358-3.3111-12.22961-9.6395-12.22961-6.3551 0-10.2002 5.39381-10.2002 12.17621 0 8.0374 4.5393 12.0962 11.0547 12.0962 3.1776 0 5.5808-.721 7.3965-1.7357v-5.3404c-1.8157.9078-3.8985 1.4686-6.542 1.4686-2.5902 0-4.8866-.9079-5.1803-4.0588h13.0574c0-.3471.0534-1.7356.0534-2.3765zm-13.1909-2.5367c0-3.0173 1.8425-4.2723 3.5247-4.2723 1.6288 0 3.3645 1.255 3.3645 4.2723z"/><path d="m65.9813 8.43799c-2.6169 0-4.2991 1.2283-5.2337 2.08281l-.3471-1.65558h-5.8745v31.13488l6.6756-1.4152.0267-7.5568c.9612.6943 2.3765 1.6823 4.7263 1.6823 4.7797 0 9.1321-3.8452 9.1321-12.3098-.0267-7.7437-4.4325-11.96261-9.1054-11.96261zm-1.6022 18.39791c-1.5754 0-2.51-.5608-3.1508-1.2551l-.0267-9.9065c.6942-.7744 1.6555-1.3084 3.1775-1.3084 2.4299 0 4.1122 2.7236 4.1122 6.2216 0 3.5781-1.6556 6.2484-4.1122 6.2484z"/><path d="m45.3405 6.86248 6.7022-1.44192v-5.42056l-6.7022 1.41522z"/></g><path d="m52.0427 8.89185h-6.7022v23.36445h6.7022z"/><path clip-rule="evenodd" d="m38.1576 10.8678-.4273-1.97595h-5.7677v23.36445h6.6756v-15.8344c1.5755-2.0561 4.2457-1.6822 5.0735-1.3885v-6.14155c-.8545-.32042-3.9787-.90787-5.5541 1.97595z" fill-rule="evenodd"/><path clip-rule="evenodd" d="m24.8063 3.09753-6.5153 1.38852-.0267 21.38855c0 3.9519 2.9639 6.8625 6.9159 6.8625 2.1896 0 3.7917-.4006 4.6729-.8812v-5.4206c-.8545.3471-5.0735 1.5755-5.0735-2.3765v-9.4793h5.0735v-5.68757h-5.0735z" fill-rule="evenodd"/><path clip-rule="evenodd" d="m6.75568 15.6743c0-1.0414.85447-1.4419 2.26969-1.4419 2.02933 0 4.59283.6141 6.62213 1.7089v-6.27501c-2.2163-.88117-4.4058-1.2283-6.62213-1.2283-5.42056 0-9.02537 2.83041-9.02537 7.55671 0 7.3699 10.1469 6.195 10.1469 9.3725 0 1.2283-1.06813 1.6289-2.56345 1.6289-2.21629 0-5.04673-.9079-7.289725-2.1362v6.3551c2.483315 1.0681 4.993325 1.5221 7.289725 1.5221 5.55405 0 9.37245-2.7504 9.37245-7.5301-.0267-7.9573-10.20022-6.542-10.20022-9.5327z" fill-rule="evenodd"/></g></svg>

<svg width="97" height="40" viewBox="0 0 97 40" fill="none" xmlns="http://www.w3.org/2000/svg">
<path fill-rule="evenodd" clip-rule="evenodd" d="M96.1282 20.6676C96.1282 13.8318 92.8171 8.43799 86.4887 8.43799C80.1336 8.43799 76.2885 13.8318 76.2885 20.6142C76.2885 28.6516 80.8278 32.7104 87.3432 32.7104C90.5208 32.7104 92.924 31.9894 94.7397 30.9747V25.6343C92.924 26.5421 90.8412 27.1029 88.1977 27.1029C85.6075 27.1029 83.3111 26.195 83.0174 23.0441H96.0748C96.0748 22.697 96.1282 21.3085 96.1282 20.6676ZM82.9373 18.1309C82.9373 15.1136 84.7798 13.8586 86.462 13.8586C88.0908 13.8586 89.8265 15.1136 89.8265 18.1309H82.9373Z" fill="#635BFF"/>
<path fill-rule="evenodd" clip-rule="evenodd" d="M65.9813 8.43799C63.3644 8.43799 61.6822 9.66629 60.7476 10.5208L60.4005 8.86522H54.526V40.0001L61.2016 38.5849L61.2283 31.0281C62.1895 31.7224 63.6048 32.7104 65.9546 32.7104C70.7343 32.7104 75.0867 28.8652 75.0867 20.4006C75.06 12.6569 70.6542 8.43799 65.9813 8.43799ZM64.3791 26.8359C62.8037 26.8359 61.8691 26.2751 61.2283 25.5808L61.2016 15.6743C61.8958 14.8999 62.8571 14.3659 64.3791 14.3659C66.809 14.3659 68.4913 17.0895 68.4913 20.5875C68.4913 24.1656 66.8357 26.8359 64.3791 26.8359Z" fill="#635BFF"/>
<path fill-rule="evenodd" clip-rule="evenodd" d="M45.3405 6.86248L52.0427 5.42056V0L45.3405 1.41522V6.86248Z" fill="#635BFF"/>
<path d="M52.0427 8.89185H45.3405V32.2563H52.0427V8.89185Z" fill="#635BFF"/>
<path fill-rule="evenodd" clip-rule="evenodd" d="M38.1576 10.8678L37.7303 8.89185H31.9626V32.2563H38.6382V16.4219C40.2137 14.3658 42.8839 14.7397 43.7117 15.0334V8.89185C42.8572 8.57143 39.733 7.98398 38.1576 10.8678Z" fill="#635BFF"/>
<path fill-rule="evenodd" clip-rule="evenodd" d="M24.8063 3.09753L18.291 4.48605L18.2643 25.8746C18.2643 29.8265 21.2282 32.7371 25.1802 32.7371C27.3698 32.7371 28.9719 32.3365 29.8531 31.8559V26.4353C28.9986 26.7824 24.7796 28.0108 24.7796 24.0588V14.5795H29.8531V8.89193H24.7796L24.8063 3.09753Z" fill="#635BFF"/>
<path fill-rule="evenodd" clip-rule="evenodd" d="M6.75568 15.6743C6.75568 14.6329 7.61015 14.2324 9.02537 14.2324C11.0547 14.2324 13.6182 14.8465 15.6475 15.9413V9.66629C13.4312 8.78512 11.2417 8.43799 9.02537 8.43799C3.60481 8.43799 0 11.2684 0 15.9947C0 23.3646 10.1469 22.1897 10.1469 25.3672C10.1469 26.5955 9.07877 26.9961 7.58345 26.9961C5.36716 26.9961 2.53672 26.0882 0.293725 24.8599V31.215C2.77704 32.2831 5.28705 32.7371 7.58345 32.7371C13.1375 32.7371 16.9559 29.9867 16.9559 25.207C16.9292 17.2497 6.75568 18.665 6.75568 15.6743Z" fill="#635BFF"/>
</svg>
